X:8
T:Blind Mary
R:carolan
C:Turlough O'Carolan (1670-1738)
Z:id:hn-carolan-8
M:2/4
L:1/8
Q:1/4=70
K:D
A | d2 d>c | B>A AF/G/ | A>B AF | E3 F/G/ |
Af f>e | dB AD/E/ | F>G E>D | D3 ||
d/e/ | f>g fd | e/d/c/B/ AB/c/ | dD DE/F/ | E3 A/G/ |
F>G Ad | f>e dD/E/ | F>G E>D | D3 ||

